packages/components/src/components/icon/cashier/ic-cashier-pay-livre-dark.svg

<svg width="40" height="25" viewBox="0 0 40 25" fill="none" xmlns="http://www.w3.org/2000/svg">
<path fill-rule="evenodd" clip-rule="evenodd" d="M8.23463 15.0588C8.23463 14.9245 8.23893 14.7763 8.24037 14.6415C8.2375 14.6372 7.41673 14.9311 7.00993 15.0755L5.98218 15.4407C5.71592 15.5354 5.44822 15.6252 5.18531 15.7266C4.94821 15.8174 4.82535 15.9704 4.85164 16.2362C4.86121 16.3375 4.9745 16.5736 4.98693 16.5909C5.00127 16.5995 5.01513 16.61 5.02995 16.6176C5.19917 16.6989 5.37508 16.7644 5.55147 16.828C5.89661 16.9546 6.24079 17.0827 6.58831 17.2008C6.86079 17.2931 7.13326 17.3872 7.41099 17.4623C7.50947 17.4891 7.60364 17.5111 7.70641 17.4934C7.92583 17.4551 8.08071 17.3414 8.16293 17.131C8.2179 16.991 8.23941 16.8447 8.24037 16.697C8.24132 16.1511 8.23654 15.6052 8.23463 15.0588Z" fill="#0AD0DA"/>
<path fill-rule="evenodd" clip-rule="evenodd" d="M10.957 11.0412C10.9498 10.0962 10.9546 9.1516 10.9522 8.20655C10.9512 8.05836 10.9268 7.9116 10.8403 7.78493C10.8016 7.72804 10.6816 7.61762 10.6711 7.60949C10.5597 7.52536 10.4292 7.49907 10.2958 7.50002C10.163 7.50146 10.0339 7.53683 9.90864 7.58225C9.58932 7.69602 9.27095 7.81265 8.95163 7.92642C8.58594 8.05645 8.21882 8.1836 7.85265 8.31315C7.36029 8.48763 6.86744 8.6621 6.37508 8.83802C6.0199 8.96469 5.66521 9.09185 5.31386 9.22809C5.29187 9.23621 5.12121 9.30218 5.02418 9.35237C4.99597 9.36719 4.97446 9.38058 4.96394 9.39062C4.64367 9.63154 4.77034 10.0589 4.91232 10.1698C5.07676 10.2989 5.35258 10.3132 5.54427 10.3835C5.7785 10.4705 6.01369 10.5556 6.2484 10.6407C6.6313 10.7793 7.01467 10.9155 7.39614 11.057C7.52042 11.1034 7.64137 11.1555 7.75322 11.2258C7.79051 11.2497 7.82684 11.2745 7.86174 11.3022C8.02426 11.4332 8.12465 11.6024 8.1758 11.8037C8.18153 11.8252 8.1887 11.8467 8.19492 11.8687C8.19779 11.8697 8.20066 11.8854 8.20448 11.9098L8.23125 12.1656L8.23603 12.1952C8.23507 12.3549 8.23412 12.514 8.23412 12.6732V12.7889L8.2346 14.527C8.2346 14.5519 8.23698 14.5762 8.23842 14.6006L8.23125 14.6422C8.23364 14.647 8.27666 14.6303 8.29817 14.624C8.58069 14.5375 8.86033 14.4424 9.13902 14.3439C9.5353 14.2029 9.93111 14.0619 10.314 13.8869C10.4622 13.8195 10.6137 13.7545 10.7127 13.6144C10.7461 13.5671 10.8226 13.4361 10.8317 13.4199C10.9397 13.2225 10.957 13.005 10.9622 12.7865C10.9679 12.5523 10.967 12.3171 10.9656 12.0824L10.957 11.0412Z" fill="#9A6BFC"/>
<path fill-rule="evenodd" clip-rule="evenodd" d="M8.23462 12.7888V12.6732L8.23557 12.1961L8.23271 12.1665C8.23175 12.1665 8.21358 11.9953 8.2045 11.9102C8.20068 11.8859 8.19781 11.8696 8.19494 11.8691C8.18873 11.8471 8.18156 11.8261 8.17582 11.8041C8.12515 11.6033 8.02429 11.4332 7.86176 11.3031C7.82686 11.2754 7.79053 11.2496 7.75325 11.2267C7.64139 11.1564 7.51997 11.1038 7.39616 11.0579C7.0147 10.9159 6.63132 10.7802 6.2489 10.6411C6.01371 10.556 5.77852 10.4709 5.54429 10.3844C5.35308 10.3136 5.34161 10.3447 4.99217 10.1229C4.64321 9.90109 4.86597 9.4876 4.96397 9.39151C4.97448 9.381 4.99599 9.36761 5.0242 9.35327H5.02276C4.7479 9.45796 4.55812 9.6463 4.46204 9.92642C4.39703 10.1152 4.37695 10.3112 4.37599 10.5087C4.37456 11.1516 4.37552 11.795 4.37552 12.4384C4.37552 13.4385 4.37408 14.438 4.37599 15.4381C4.37695 15.7014 4.40707 15.9615 4.53087 16.2C4.6303 16.3908 4.77945 16.5265 4.98739 16.5915C4.97305 16.5676 4.86167 16.3382 4.85163 16.2364C4.82582 15.9711 4.94867 15.8181 5.18577 15.7273C5.44868 15.6264 5.71638 15.5361 5.98216 15.4414L7.00992 15.0762C7.41767 14.9318 7.83355 14.787 8.24083 14.6421C8.2394 14.6278 8.2394 14.6278 8.23892 14.601C8.23749 14.5767 8.23509 14.5518 8.23509 14.5274V12.7888H8.23462Z" fill="#352CAA"/>
<path fill-rule="evenodd" clip-rule="evenodd" d="M35.8018 11.7938C35.8046 11.5969 35.6392 11.419 35.4232 11.4238C35.2157 11.4286 35.0618 11.6026 35.0618 11.7938C35.0618 11.9965 35.23 12.1662 35.4356 12.1643C35.6373 12.1624 35.8051 11.9932 35.8018 11.7938ZM35.4308 11.3755C35.6617 11.3755 35.85 11.5634 35.85 11.7933C35.85 12.0247 35.6622 12.2126 35.4313 12.2121C35.1999 12.2116 35.013 12.0223 35.014 11.7905C35.0145 11.5644 35.2033 11.3755 35.4308 11.3755Z" fill="white"/>
<path fill-rule="evenodd" clip-rule="evenodd" d="M15.7898 11.8154C15.7898 11.5444 15.6139 11.3632 15.3376 11.3632H14.7596L14.6339 12.4039H15.2071C15.5489 12.4039 15.7903 12.1625 15.7903 11.8159L15.7898 11.8154ZM16.7047 11.7098C16.7047 12.5444 16.0613 13.1324 15.1617 13.1324H14.5431L14.393 14.3538H13.5134L13.9704 10.6347H15.5187C16.2525 10.6347 16.7042 11.0621 16.7042 11.7103L16.7047 11.7098ZM18.6441 12.8614C18.6441 12.5191 18.4878 12.2925 18.2368 12.2925C17.9151 12.2925 17.6684 12.64 17.6684 13.1075C17.6684 13.4489 17.8195 13.6707 18.0657 13.6707C18.3922 13.6707 18.6441 13.3337 18.6441 12.8614ZM19.6594 11.6147L19.3176 14.3538H18.6187L18.5939 13.9618C18.3826 14.2381 18.0857 14.4044 17.699 14.4044C17.1254 14.4044 16.7793 13.9312 16.7793 13.2228C16.7793 12.2533 17.3166 11.564 18.0508 11.564C18.4275 11.564 18.6838 11.7504 18.82 12.0621L18.9553 11.6147H19.6594ZM22.6786 11.6142L22.3722 14.1324C22.2718 14.9618 21.6184 15.5101 20.7388 15.5101C20.4266 15.5101 20.1054 15.4599 19.9242 15.3791L19.8841 14.6707C20.0499 14.7357 20.3415 14.7811 20.6178 14.7811C21.1207 14.7811 21.4879 14.5196 21.5376 14.1277L21.5576 13.9819C21.3115 14.2687 20.9897 14.4044 20.6934 14.4044C20.2106 14.4044 19.9696 14.1224 19.9696 13.5899C19.9696 13.5143 19.9744 13.424 19.9845 13.3284L20.1957 11.6147H21.05L20.854 13.2032C20.8492 13.2481 20.8492 13.2882 20.8492 13.3236C20.8492 13.555 20.9448 13.6707 21.1355 13.6707C21.4023 13.6707 21.6031 13.4293 21.6485 13.0621L21.8292 11.6147H22.6786V11.6142ZM26.3718 14.0373L26.2762 14.3538H24.2504L24.7078 10.6342H25.0898L24.6725 14.0373H26.3718ZM27.2452 10.4335H27.6171L27.5315 11.1366H27.1596L27.2452 10.4335ZM27.0946 11.695H27.456L27.13 14.3538H26.7676L27.0946 11.695ZM30.2453 11.6955C30.2453 12.7003 29.6325 13.7663 28.7175 14.3538H28.3905L27.9641 11.6955H28.3513L28.6726 14.0378C29.4068 13.51 29.8839 12.5851 29.8839 11.6955H30.2458H30.2453ZM32.4456 11.6448L32.4007 12.0114H32.1746C31.5761 12.0114 31.1291 12.4235 31.0488 13.0521L30.8877 14.3538H30.5259L30.8576 11.695H31.1645L31.1191 12.369C31.3505 11.9158 31.7472 11.6448 32.2702 11.6448H32.4456ZM32.8524 12.8312H34.3501C34.3553 12.7806 34.3553 12.7404 34.3553 12.695C34.3553 12.2375 34.134 11.9512 33.7578 11.9512C33.2999 11.9512 32.9581 12.293 32.8524 12.8308V12.8312ZM34.7072 12.7203C34.7072 12.7959 34.7024 12.8814 34.6924 12.9617L34.6771 13.0922H32.8223C32.8175 13.1271 32.8175 13.1625 32.8175 13.1974C32.8175 13.7806 33.1039 14.0975 33.667 14.0975C33.9586 14.0975 34.2502 14.032 34.4763 13.9269L34.3807 14.2328C34.1493 14.3389 33.8529 14.4044 33.5413 14.4044C32.8276 14.4044 32.4404 13.9819 32.4404 13.238C32.4404 12.2834 33.0236 11.6448 33.8123 11.6448C34.3754 11.6448 34.7072 12.0669 34.7072 12.7203ZM35.3262 11.8035H35.3434C35.3826 11.8035 35.4218 11.8035 35.4615 11.8016C35.4754 11.8016 35.4892 11.7992 35.5031 11.7954C35.5289 11.7872 35.5437 11.7681 35.548 11.7413C35.5518 11.7155 35.5423 11.6935 35.5203 11.6787C35.5064 11.6692 35.4911 11.6653 35.4744 11.6653L35.3305 11.6639L35.3262 11.6644V11.8035ZM35.3262 12.0377H35.2708V11.6171H35.2755C35.3391 11.6171 35.4027 11.6171 35.4658 11.618C35.4849 11.618 35.5031 11.6199 35.5217 11.6228C35.5633 11.6304 35.5896 11.6563 35.6011 11.6969C35.6126 11.7385 35.6059 11.7767 35.5757 11.8097C35.5585 11.8274 35.5365 11.8355 35.5126 11.8417C35.5055 11.8436 35.4983 11.8451 35.4902 11.8479L35.4926 11.8489C35.5222 11.8632 35.5428 11.8871 35.5604 11.9134L35.6355 12.0291C35.6364 12.0315 35.6374 12.0339 35.6393 12.0363L35.6345 12.0372H35.5738C35.57 12.0377 35.569 12.0353 35.5676 12.0325C35.5456 11.999 35.5246 11.9646 35.5016 11.9311C35.4887 11.912 35.4749 11.8934 35.4596 11.8757C35.4462 11.8604 35.428 11.8518 35.407 11.8518C35.3812 11.8518 35.3554 11.8518 35.33 11.8508H35.3262V12.0377Z" fill="white"/>
</svg>

<svg width="40" height="25" fill="none" xmlns="http://www.w3.org/2000/svg"><path fill-rule="evenodd" clip-rule="evenodd" d="M8.235 15.059c0-.134.004-.283.005-.417-.002-.005-.823.29-1.23.434l-1.028.365c-.266.094-.534.184-.797.286-.237.09-.36.243-.333.51.01.1.122.337.135.354.014.008.028.019.043.027.17.08.345.146.521.21.346.127.69.255 1.037.373.273.092.545.186.823.261a.666.666 0 00.295.031.556.556 0 00.457-.362c.055-.14.076-.286.077-.434.001-.546-.003-1.092-.005-1.638z" fill="#0AD0DA"/><path fill-rule="evenodd" clip-rule="evenodd" d="M10.957 11.041c-.007-.945-.002-1.89-.005-2.834a.736.736 0 00-.112-.422 1.423 1.423 0 00-.169-.176.596.596 0 00-.375-.109 1.18 1.18 0 00-.387.082l-.957.344c-.366.13-.733.258-1.1.387l-1.477.525c-.355.127-.71.254-1.061.39a3.5 3.5 0 00-.29.124.302.302 0 00-.06.039c-.32.24-.194.668-.052.779.165.129.44.143.632.213.235.088.47.173.704.258.383.138.767.274 1.148.416.124.046.245.098.357.169a.91.91 0 01.423.578l.019.065c.003 0 .006.016.01.04l.026.257.005.03-.002.477v1.854c0 .025.003.05.004.074l-.007.041c.003.005.046-.012.067-.018.283-.087.562-.182.841-.28.396-.141.792-.282 1.175-.457.148-.068.3-.133.399-.273a3.79 3.79 0 00.119-.194c.108-.197.125-.415.13-.633.006-.235.005-.47.004-.705l-.009-1.04z" fill="#9A6BFC"/><path fill-rule="evenodd" clip-rule="evenodd" d="M8.235 12.789v-.593l-.002-.03-.029-.256c-.003-.024-.006-.04-.01-.04-.005-.023-.012-.044-.018-.066a.906.906 0 00-.423-.577 1.92 1.92 0 00-.357-.17c-.381-.141-.765-.277-1.147-.416-.235-.085-.47-.17-.705-.257-.19-.07-.202-.04-.552-.261-.349-.222-.126-.635-.028-.731a.264.264 0 01.06-.039h-.001a.903.903 0 00-.561.573 1.799 1.799 0 00-.086.583v1.93c0 1-.002 1.999 0 3 0 .262.031.522.155.761.1.19.248.326.456.392-.014-.024-.125-.254-.135-.356-.026-.265.097-.418.334-.509.263-.1.53-.19.796-.286l1.028-.365c.408-.144.824-.289 1.23-.434l-.001-.041c-.002-.024-.004-.05-.004-.074V12.79z" fill="#352CAA"/><path fill-rule="evenodd" clip-rule="evenodd" d="M35.802 11.794a.37.37 0 10-.74 0 .37.37 0 00.74 0zm-.371-.418a.419.419 0 11.001.836.419.419 0 01-.001-.836z" fill="#fff"/><path fill-rule="evenodd" clip-rule="evenodd" d="M15.79 11.815c0-.27-.176-.452-.452-.452h-.578l-.126 1.04h.573c.342 0 .583-.24.583-.587zm.915-.105c0 .834-.644 1.422-1.543 1.422h-.619l-.15 1.222h-.88l.457-3.72h1.549c.734 0 1.185.428 1.185 1.076zm1.94 1.151c0-.342-.157-.569-.408-.569-.322 0-.569.348-.569.816 0 .34.152.563.398.563.326 0 .578-.337.578-.81zm1.014-1.246l-.341 2.739h-.7l-.024-.392a1.081 1.081 0 01-.895.442c-.574 0-.92-.473-.92-1.181 0-.97.538-1.659 1.272-1.659.377 0 .633.186.769.498l.135-.447h.704zm3.02 0l-.307 2.517c-.1.83-.754 1.378-1.633 1.378-.312 0-.634-.05-.815-.13l-.04-.71c.166.066.457.111.734.111.503 0 .87-.261.92-.653l.02-.146a1.151 1.151 0 01-.865.422c-.482 0-.723-.282-.723-.814 0-.076.004-.166.015-.262l.21-1.713h.855l-.196 1.588c-.005.045-.005.085-.005.12 0 .232.096.348.287.348.266 0 .467-.242.512-.609l.181-1.447h.85zm3.693 2.422l-.096.317H24.25l.458-3.72h.382l-.418 3.403h1.7zm.873-3.604h.372l-.085.704h-.372l.085-.704zm-.15 1.262h.361l-.326 2.659h-.362l.327-2.659zm3.15 0c0 1.005-.613 2.071-1.527 2.659h-.328l-.426-2.659h.387l.322 2.343c.734-.528 1.21-1.453 1.21-2.343h.363zm2.2-.05l-.044.366h-.226c-.599 0-1.046.413-1.126 1.041l-.161 1.302h-.362l.332-2.659h.306l-.045.674c.232-.453.628-.724 1.151-.724h.176zm.407 1.186h1.498c.005-.05.005-.09.005-.136 0-.457-.221-.744-.597-.744-.458 0-.8.342-.906.88zm1.855-.11c0 .075-.005.16-.015.24l-.015.131h-1.855c-.005.035-.005.07-.005.105 0 .584.287.9.85.9.292 0 .583-.065.81-.17l-.096.306a2.056 2.056 0 01-.84.171c-.713 0-1.1-.422-1.1-1.166 0-.955.583-1.593 1.371-1.593.563 0 .895.422.895 1.075zm.62-.918h.016l.118-.001a.158.158 0 00.042-.007.063.063 0 00.045-.054.061.061 0 00-.028-.062.079.079 0 00-.046-.014l-.143-.001h-.005v.14zm0 .235h-.056v-.42h.195c.019 0 .037.002.056.005a.096.096 0 01.08.074.113.113 0 01-.026.113.128.128 0 01-.063.032l-.023.006h.003c.03.015.05.04.067.065l.075.116.004.007-.005.001h-.06c-.004 0-.005-.002-.006-.005-.022-.033-.043-.067-.066-.1a.585.585 0 00-.042-.056.068.068 0 00-.053-.024l-.077-.001h-.004v.187z" fill="#fff"/></svg>
